public/assets/sponsors/sketch-light.svg

<svg viewBox="0 0 1407 1288" fill="none" xmlns="http://www.w3.org/2000/svg">
<path d="M706.328 0.18653L1092.4 43.751C1100.55 44.6705 1107.95 48.9314 1112.83 55.5165L1400.2 442.739C1408.41 453.804 1407.89 469.074 1398.95 479.56L714.267 1282.72C708.967 1288.93 699.632 1289.68 693.417 1284.38C692.82 1283.87 692.265 1283.31 691.757 1282.72L7.07 479.56C-1.86915 469.074 -2.38471 453.804 5.8268 442.739L293.19 55.5165C298.077 48.9314 305.478 44.6705 313.626 43.751L699.695 0.18653C701.899 -0.0621768 704.124 -0.0621768 706.328 0.18653ZM786.472 83.7279C784.21 81.4532 780.596 81.2518 778.095 83.2612C775.639 85.234 775.06 88.6772 776.605 91.3165L777.133 92.0819L994.845 363.101C996.955 365.728 998.105 368.996 998.105 372.364C998.105 380.125 992.129 386.489 984.528 387.106L983.315 387.155H422.708C419.339 387.155 416.071 386.005 413.445 383.895C407.431 379.063 406.192 370.491 410.382 364.189L411.178 363.101L628.891 92.0819C630.9 89.5807 630.698 85.9665 628.424 83.704C626.19 81.4826 622.705 81.2894 620.253 83.1185L619.551 83.7279L324.614 380.274C322.256 382.645 319.005 383.907 315.665 383.749C309.522 383.458 304.696 378.532 304.407 372.511L304.407 371.37L314.58 156.57C314.716 153.703 312.774 151.152 309.975 150.519C307.054 149.859 304.149 151.484 303.13 154.214L302.9 154.986L247.016 402.216C245.105 410.673 238.737 417.363 230.487 419.738L228.919 420.132L90.5507 449.944C87.8261 450.531 85.8807 452.941 85.8807 455.728C85.8807 458.723 88.1063 461.198 90.9939 461.59L91.7967 461.644H229.823C237.849 461.644 245.289 465.709 249.637 472.37L250.465 473.737L581.574 1064.39C583.851 1068.46 588.878 1070.07 593.091 1068.09C597.23 1066.14 599.165 1061.4 597.71 1057.18L597.345 1056.28L329.666 486.945C328.555 484.582 327.979 482.004 327.979 479.393C327.979 470.017 335.249 462.339 344.459 461.689L345.727 461.644H1060.3C1062.91 461.644 1065.49 462.22 1067.85 463.331C1076.33 467.32 1080.19 477.167 1076.86 485.779L1076.36 486.945L808.678 1056.28C806.697 1060.49 808.308 1065.52 812.369 1067.8C816.359 1070.03 821.336 1068.86 823.931 1065.21L824.449 1064.39L1155.56 473.737C1159.48 466.735 1166.67 462.233 1174.6 461.698L1176.2 461.644H1314.23C1317.01 461.644 1319.42 459.699 1320.01 456.974C1320.64 454.046 1318.99 451.157 1316.25 450.166L1315.47 449.944L1177.1 420.132C1168.63 418.306 1161.88 412.007 1159.42 403.78L1159.01 402.216L1103.12 154.986C1102.49 152.186 1099.94 150.245 1097.07 150.38C1094.08 150.522 1091.71 152.862 1091.46 155.765L1091.44 156.57L1101.62 371.37C1101.77 374.71 1100.51 377.961 1098.14 380.319C1093.8 384.64 1086.94 384.892 1082.31 381.089L1081.41 380.274L786.472 83.7279Z" fill="black"/>
</svg>

<svg xmlns="http://www.w3.org/2000/svg" viewBox="0 0 1407 1288" fill="none" xmlns:v="https://vecta.io/nano"><path d="M706.328.187L1092.4 43.751a29.55 29.55 0 0 1 20.43 11.766l287.37 387.222c8.21 11.065 7.69 26.335-1.25 36.821l-684.683 803.16c-5.3 6.21-14.635 6.96-20.85 1.66-.597-.51-1.152-1.07-1.66-1.66L7.07 479.56c-8.939-10.486-9.455-25.756-1.243-36.821L293.19 55.517a29.58 29.58 0 0 1 20.436-11.766L699.695.187c2.204-.249 4.429-.249 6.633 0zm80.144 83.541c-2.262-2.275-5.876-2.476-8.377-.467-2.456 1.973-3.035 5.416-1.49 8.055l.528.765 217.712 271.019c2.11 2.627 3.26 5.895 3.26 9.263 0 7.761-5.976 14.125-13.577 14.742l-1.213.049H422.708a14.79 14.79 0 0 1-9.263-3.26c-6.014-4.832-7.253-13.404-3.063-19.706l.796-1.088L628.891 92.082c2.009-2.501 1.807-6.115-.467-8.378-2.234-2.221-5.719-2.415-8.171-.585l-.702.609-294.937 296.546a11.83 11.83 0 0 1-8.949 3.475c-6.143-.291-10.969-5.217-11.258-11.238v-1.141l10.173-214.8a5.92 5.92 0 0 0-11.45-2.356l-.23.772-55.884 247.23c-1.911 8.457-8.279 15.147-16.529 17.522l-1.568.394-138.368 29.812a5.92 5.92 0 0 0 .443 11.646l.803.054h138.026c8.026 0 15.466 4.065 19.814 10.726l.828 1.367 331.109 590.653a8.87 8.87 0 0 0 11.517 3.7c4.139-1.95 6.074-6.69 4.619-10.91l-.365-.9-267.679-569.335c-1.111-2.363-1.687-4.941-1.687-7.552 0-9.376 7.27-17.054 16.48-17.704l1.268-.045H1060.3a17.73 17.73 0 0 1 7.55 1.687 17.76 17.76 0 0 1 9.01 22.448l-.5 1.166-267.682 569.335a8.88 8.88 0 0 0 15.253 8.93l.518-.82 331.111-590.653c3.92-7.002 11.11-11.504 19.04-12.039l1.6-.054h138.03a5.92 5.92 0 0 0 5.78-4.67c.63-2.928-1.02-5.817-3.76-6.808l-.78-.222-138.37-29.812c-8.47-1.826-15.22-8.125-17.68-16.352l-.41-1.564-55.89-247.23c-.63-2.8-3.18-4.741-6.05-4.606-2.99.142-5.36 2.482-5.61 5.385l-.02.805 10.18 214.8a11.87 11.87 0 0 1-3.48 8.949c-4.34 4.321-11.2 4.573-15.83.77l-.9-.815L786.472 83.728z" fill="#000"/></svg>
